images/preim-6.svg

<svg width="50" height="51" viewBox="0 0 50 51" fill="none" xmlns="http://www.w3.org/2000/svg">
<g clip-path="url(#clip0_1157_41481)">
<circle cx="25" cy="25.6987" r="25" fill="white"/>
<path d="M20.7113 33.3255H23.4049L30.2688 19.031H27.5552L20.7113 33.3255ZM34 30.0331C34 25.166 26.8369 25.166 26.8369 30.0331C26.8369 34.9206 34 34.9206 34 30.0331ZM29.0516 30.0331C29.0516 27.8449 31.7653 27.8449 31.7653 30.0331C31.7653 32.2621 29.0516 32.2621 29.0516 30.0331ZM24.1631 22.3644C24.1631 17.4768 17 17.4768 17 22.3644C17 27.2519 24.1631 27.2519 24.1631 22.3644ZM19.2347 22.3644C19.2347 20.1353 21.9484 20.1353 21.9484 22.3644C21.9484 24.5525 19.2347 24.5525 19.2347 22.3644Z" fill="#F53B49"/>
</g>
<defs>
<clipPath id="clip0_1157_41481">
<rect width="50" height="50" fill="white" transform="translate(0 0.69873)"/>
</clipPath>
</defs>
</svg>

<svg width="50" height="51" fill="none" xmlns="http://www.w3.org/2000/svg"><g clip-path="url(#clip0_1157_41481)"><circle cx="25" cy="25.699" r="25" fill="#fff"/><path d="M20.711 33.325h2.694l6.864-14.294h-2.714l-6.844 14.294zM34 30.033c0-4.867-7.163-4.867-7.163 0 0 4.888 7.163 4.888 7.163 0zm-4.948 0c0-2.188 2.713-2.188 2.713 0 0 2.23-2.713 2.23-2.713 0zm-4.889-7.669c0-4.887-7.163-4.887-7.163 0 0 4.888 7.163 4.888 7.163 0zm-4.928 0c0-2.229 2.713-2.229 2.713 0 0 2.188-2.713 2.188-2.713 0z" fill="#F53B49"/></g><defs><clipPath id="clip0_1157_41481"><path fill="#fff" transform="translate(0 .699)" d="M0 0h50v50H0z"/></clipPath></defs></svg>
